X:0305
T:The Hemp Dressers.
M:6/8
L:1/8
Q:3/8=120
I: :: ::
Z:Jack Campin * www.campin.me.uk * 2009
K:G
D|G2d ded|c2B ABc|d2G G2A|B3 d2
G|G2d ded|c2B ABc|dgG G2A|B3 d2:|
c|BAB GAB|AGA D2D|G2G G2A|B3 d2
c|BAB GAB|AGA D2f|g2G G2A|B3 d2:|

